www/assets/images/test_icons/flags/TM.svg

<svg fill="none" height="15" viewBox="0 0 21 15" width="21" xmlns="http://www.w3.org/2000/svg" xmlns:xlink="http://www.w3.org/1999/xlink"><mask id="a" height="15" maskUnits="userSpaceOnUse" width="21" x="0" y="0"><path d="m19 0h-17c-1.10457 0-2 .89543-2 2v11c0 1.1046.89543 2 2 2h17c1.1046 0 2-.8954 2-2v-11c0-1.10457-.8954-2-2-2z" fill="#fff"/></mask><g mask="url(#a)"><path d="m19 0h-17c-1.10457 0-2 .89543-2 2v11c0 1.1046.89543 2 2 2h17c1.1046 0 2-.8954 2-2v-11c0-1.10457-.8954-2-2-2z" fill="#2db771"/><g clip-rule="evenodd" fill-rule="evenodd"><path d="m2 0h1v15h-1zm2 0h1v15h-1zm2 0h1v15h-1z" fill="#d4b339"/><path d="m5 0 2 1.5-2 1.5zm0 3 2 1.5-2 1.5zm0 3 2 1.5-2 1.5zm0 3 2 1.5-2 1.5zm0 3 2 1.5-2 1.5zm-1-12-2 1.5 2 1.5zm0 3-2 1.5 2 1.5zm0 3-2 1.5 2 1.5zm0 3-2 1.5 2 1.5zm0 3-2 1.5 2 1.5zm0-12h1v2h-1zm0 13h1v2h-1zm0-8h1v2h-1zm0-2h1v1h-1zm0 8h1v1h-1zm0-3h1v2h-1z" fill="#ae6a3e"/><path d="m11.236 3.014c.087-.01.175-.014.264-.014 1.38 0 2.5 1.12 2.5 2.5s-1.12 2.5-2.5 2.5-2.5-1.12-2.5-2.5c0-.09.005-.177.014-.264.116.994.96 1.764 1.986 1.764 1.105 0 2-.895 2-2 0-1.025-.77-1.87-1.764-1.986zm-1.236.986h1v1h-1z" fill="#fff"/><path d="m8 4h1v1h-1zm2-2h1v1h-1z" fill="#9ee2c0"/></g><path d="m19 .5h-17c-.82843 0-1.5.67157-1.5 1.5v11c0 .8284.67157 1.5 1.5 1.5h17c.8284 0 1.5-.6716 1.5-1.5v-11c0-.82843-.6716-1.5-1.5-1.5z" stroke="#000" stroke-opacity=".1"/></g></svg>

<svg width="21" height="15" viewBox="0 0 21 15" fill="none" xmlns="http://www.w3.org/2000/svg">
<mask id="mask0_3_27" style="mask-type:alpha" maskUnits="userSpaceOnUse" x="0" y="0" width="21" height="15">
<path d="M19 0H2C0.89543 0 0 0.89543 0 2V13C0 14.1046 0.89543 15 2 15H19C20.1046 15 21 14.1046 21 13V2C21 0.89543 20.1046 0 19 0Z" fill="white"/>
</mask>
<g mask="url(#mask0_3_27)">
<path d="M19 0H2C0.89543 0 0 0.89543 0 2V13C0 14.1046 0.89543 15 2 15H19C20.1046 15 21 14.1046 21 13V2C21 0.89543 20.1046 0 19 0Z" fill="#2DB771"/>
<path fill-rule="evenodd" clip-rule="evenodd" d="M2 0H3V15H2V0ZM4 0H5V15H4V0ZM6 0H7V15H6V0Z" fill="#D4B339"/>
<path fill-rule="evenodd" clip-rule="evenodd" d="M5 0L7 1.5L5 3V0ZM5 3L7 4.5L5 6V3ZM5 6L7 7.5L5 9V6ZM5 9L7 10.5L5 12V9ZM5 12L7 13.5L5 15V12ZM4 0L2 1.5L4 3V0ZM4 3L2 4.5L4 6V3ZM4 6L2 7.5L4 9V6ZM4 9L2 10.5L4 12V9ZM4 12L2 13.5L4 15V12ZM4 0H5V2H4V0ZM4 13H5V15H4V13ZM4 5H5V7H4V5ZM4 3H5V4H4V3ZM4 11H5V12H4V11ZM4 8H5V10H4V8Z" fill="#AE6A3E"/>
<path fill-rule="evenodd" clip-rule="evenodd" d="M11.236 3.014C11.323 3.004 11.411 3 11.5 3C12.88 3 14 4.12 14 5.5C14 6.88 12.88 8 11.5 8C10.12 8 9 6.88 9 5.5C9 5.41 9.005 5.323 9.014 5.236C9.13 6.23 9.974 7 11 7C12.105 7 13 6.105 13 5C13 3.975 12.23 3.13 11.236 3.014ZM10 4H11V5H10V4Z" fill="white"/>
<path fill-rule="evenodd" clip-rule="evenodd" d="M8 4H9V5H8V4ZM10 2H11V3H10V2Z" fill="#9EE2C0"/>
<path d="M19 0.5H2C1.17157 0.5 0.5 1.17157 0.5 2V13C0.5 13.8284 1.17157 14.5 2 14.5H19C19.8284 14.5 20.5 13.8284 20.5 13V2C20.5 1.17157 19.8284 0.5 19 0.5Z" stroke="black" stroke-opacity="0.1"/>
</g>
</svg>
